X:47
T:Si nos c\oeurs. [FJ47]
S:Festin joyeux.  Music page 23.
Z:transcribed by Eric Conrad, 2021.
N:NB The meter is given simply as "3"
N:NB In the MS, the G is the bottom line of the staff
N:NB Repeat marks were added at beginning and end.
N:NB The MS repeat mark is 4 vertical dots enclosed by bars on both sides.
N:NB The plus signs seem to indicate some kind of roll or trill.
M:3/4
L:1/4
% K:C clef=treble1 % staff GBdfa
K:C % empty sig and end C (C Major)
|: g"^+"f2 | e2g | cde | "^+"d2d | gc'2 | a2g |
ae^f | g3 :: d>ef | "^+"e>dc | edc |
d2B | g>fe | a>bg | c'"^+"d>c | c3 :|


